Numix-Circle/48/applications/goa-account-owncloud.svg

<svg xmlns="http://www.w3.org/2000/svg" viewBox="0 0 256 256" xmlns:xlink="http://www.w3.org/1999/xlink">
<g style="fill:#1d2d44;stroke:#f9f9f9" transform="translate(0 208)">
<circle cx="288.494" cy="78.911" r="20.332" d="m 308.82599,78.911003 c 0,11.229054 -9.10295,20.332001 -20.332,20.332001 -11.22906,0 -20.332,-9.102947 -20.332,-20.332001 0,-11.229054 9.10294,-20.332001 20.332,-20.332001 11.22905,0 20.332,9.102947 20.332,20.332001 z" transform="matrix(.75256 0 0 .75256 -133.02544 -166.57762)"/>
<circle cx="251.211" cy="149.577" r="37.242" d="m 288.453,149.577 c 0,20.56818 -16.67381,37.242 -37.242,37.242 -20.56819,0 -37.242,-16.67382 -37.242,-37.242 0,-20.56819 16.67381,-37.242 37.242,-37.242 20.56819,0 37.242,16.67381 37.242,37.242 z" transform="matrix(.75256 0 0 .75256 -133.02544 -166.57762)"/>
<circle cx="293.225" cy="124.796" r="40.261" d="m 333.48601,124.796 c 0,22.23553 -18.02547,40.261 -40.261,40.261 -22.23554,0 -40.26101,-18.02547 -40.26101,-40.261 0,-22.23554 18.02547,-40.261004 40.26101,-40.261004 22.23553,0 40.261,18.025464 40.261,40.261004 z" transform="matrix(.75256 0 0 .75256 -133.02544 -166.57762)"/>
<circle cx="375.334" cy="108.472" r="37.242" d="m 412.57602,108.472 c 0,20.56819 -16.67382,37.242 -37.24201,37.242 -20.56818,0 -37.242,-16.67381 -37.242,-37.242 0,-20.568189 16.67382,-37.242 37.242,-37.242 20.56819,0 37.24201,16.673811 37.24201,37.242 z" transform="matrix(.75256 0 0 .75256 -133.02544 -166.57762)"/>
<circle cx="334.493" cy="79.504" r="37.241" d="m 371.73401,79.503998 c 0,20.567632 -16.67336,37.241002 -37.241,37.241002 -20.56764,0 -37.241,-16.67337 -37.241,-37.241002 0,-20.567637 16.67336,-37.241001 37.241,-37.241001 20.56764,0 37.241,16.673364 37.241,37.241001 z" transform="matrix(.75256 0 0 .75256 -133.02544 -166.57762)"/>
<circle cx="458.427" cy="163.958" r="21.3" d="m 479.727,163.95799 c 0,11.76367 -9.53633,21.3 -21.3,21.3 -11.76366,0 -21.3,-9.53633 -21.3,-21.3 0,-11.76366 9.53634,-21.3 21.3,-21.3 11.76367,0 21.3,9.53634 21.3,21.3 z" transform="matrix(.75256 0 0 .75256 -133.02544 -166.57762)"/>
<circle cx="413.163" cy="147.563" r="40.261" d="m 453.424,147.563 c 0,22.23554 -18.02547,40.26101 -40.26101,40.26101 -22.23553,0 -40.261,-18.02547 -40.261,-40.26101 0,-22.23553 18.02547,-40.261 40.261,-40.261 22.23554,0 40.26101,18.02547 40.26101,40.261 z" transform="matrix(.75256 0 0 .75256 -133.02544 -166.57762)"/>
<circle cx="290.762" cy="166.011" r="21.299" d="m 312.06099,166.011 c 0,11.76311 -9.53588,21.299 -21.299,21.299 -11.76311,0 -21.299,-9.53589 -21.299,-21.299 0,-11.76311 9.53589,-21.299 21.299,-21.299 11.76312,0 21.299,9.53589 21.299,21.299 z" transform="matrix(.75256 0 0 .75256 -133.02544 -166.57762)"/>
<path d="m 166.57569,-64.477977 c 0,21.333684 -17.29693,38.62761 -38.63213,38.62761 -21.33521,0 -38.631379,-17.293926 -38.631379,-38.62761 0,-21.33596 17.296939,-38.631393 38.631379,-38.631393 21.33445,0 38.63213,17.295433 38.63213,38.631393 z"/>
</g>
</svg>

<svg width="48" xmlns="http://www.w3.org/2000/svg" height="48" viewBox="0 0 48 48" xmlns:xlink="http://www.w3.org/1999/xlink">
<g style="fill:#1c2d44;stroke:#f9f9f9">
<path d="M 308.813171 78.917457 C 308.813171 90.129187 299.733053 99.236988 288.493639 99.236988 C 277.254226 99.236988 268.174108 90.129187 268.174108 78.917457 C 268.174108 67.678043 277.254226 58.570242 288.493639 58.570242 C 299.733053 58.570242 308.813171 67.678043 308.813171 78.917457 Z " transform="matrix(.14111 0 0 .14111 -24.94227 7.7667)"/>
<path d="M 288.465956 149.565201 C 288.465956 170.133883 271.772935 186.826904 251.204254 186.826904 C 230.635573 186.826904 213.970235 170.133883 213.970235 149.565201 C 213.970235 128.99652 230.635573 112.331182 251.204254 112.331182 C 271.772935 112.331182 288.465956 128.99652 288.465956 149.565201 Z " transform="matrix(.14111 0 0 .14111 -24.94227 7.7667)"/>
<path d="M 333.478978 124.788661 C 333.478978 147.018339 315.45716 165.067841 293.227481 165.067841 C 270.997803 165.067841 252.975984 147.018339 252.975984 124.788661 C 252.975984 102.558983 270.997803 84.537164 293.227481 84.537164 C 315.45716 84.537164 333.478978 102.558983 333.478978 124.788661 Z " transform="matrix(.14111 0 0 .14111 -24.94227 7.7667)"/>
<path d="M 412.570125 108.483206 C 412.570125 129.051887 395.904787 145.717225 375.336106 145.717225 C 354.767425 145.717225 338.102087 129.051887 338.102087 108.483206 C 338.102087 87.914525 354.767425 71.221503 375.336106 71.221503 C 395.904787 71.221503 412.570125 87.914525 412.570125 108.483206 Z " transform="matrix(.14111 0 0 .14111 -24.94227 7.7667)"/>
<path d="M 371.737279 79.498806 C 371.737279 100.067487 355.071941 116.732825 334.50326 116.732825 C 313.934579 116.732825 297.241558 100.067487 297.241558 79.498806 C 297.241558 58.930125 313.934579 42.264787 334.50326 42.264787 C 355.071941 42.264787 371.737279 58.930125 371.737279 79.498806 Z " transform="matrix(.14111 0 0 .14111 -24.94227 7.7667)"/>
<path d="M 479.729776 163.96051 C 479.729776 175.725906 470.179042 185.248956 458.413646 185.248956 C 446.675933 185.248956 437.125199 175.725906 437.125199 163.96051 C 437.125199 152.195114 446.675933 142.64438 458.413646 142.64438 C 470.179042 142.64438 479.729776 152.195114 479.729776 163.96051 Z " transform="matrix(.14111 0 0 .14111 -24.94227 7.7667)"/>
<path d="M 453.430654 147.572005 C 453.430654 169.801683 435.408836 187.823502 413.151474 187.823502 C 390.921796 187.823502 372.899977 169.801683 372.899977 147.572005 C 372.899977 125.314643 390.921796 107.292824 413.151474 107.292824 C 435.408836 107.292824 453.430654 125.314643 453.430654 147.572005 Z " transform="matrix(.14111 0 0 .14111 -24.94227 7.7667)"/>
<path d="M 312.052115 166.009073 C 312.052115 177.774469 302.529065 187.29752 290.763669 187.29752 C 278.998273 187.29752 269.475222 177.774469 269.475222 166.009073 C 269.475222 154.243677 278.998273 144.720626 290.763669 144.720626 C 302.529065 144.720626 312.052115 154.243677 312.052115 166.009073 Z " transform="matrix(.14111 0 0 .14111 -24.94227 7.7667)"/>
<path d="M 166.583333 -64.479167 C 166.583333 -43.145833 149.270833 -25.854167 127.9375 -25.854167 C 106.604167 -25.854167 89.3125 -43.145833 89.3125 -64.479167 C 89.3125 -85.8125 106.604167 -103.104167 127.9375 -103.104167 C 149.270833 -103.104167 166.583333 -85.8125 166.583333 -64.479167 Z " transform="matrix(.1875 0 0 .1875 0 39)"/>
</g>
</svg>
